X: 15
T: Inventio 15
C: Johann Sebastian Bach
%%abc-version 2.0
%%abcx-abcm2ps-target-version 5.9.1 (29 Sep 2008)
%%abc-creator hum2abc beta
%%abcx-conversion-date 2021/01/28 10:10:55
%%abc-copyright Copyright 1994, David Huron
%%abc-edited-by David Huron
%%abcx-initial-encoding-date 1986 November
%%gracespace 0 6 6
%%humdrum-veritas 3011213797
%%humdrum-veritas-data 112003498
%%linebreak <none>
%%barnumbers 0
L: 1/16
M: 4/4
N: Derived from inven15.krn
Q: 1/4=72
%%staves {1 2}
V: 1 clef=treble
V: 2 clef=bass
K: D
[V:1] z2 B ^A B2 F2 !mordent!G2 F2 B2 F2 | 
[V:2] B,,2 z2 D,2 z2 E,2 z2 D,2 z2 | 
[V:1] !mordent!F2 E2 c2 E2 !mordent!E2 D C D E F E | 
[V:2] C,2 z2 ^A,,2 z2 B,,2 z2 G,,2 z2 | 
[V:1] !uppermordent!F2 z2 z A ^G A B c B G A B A F | 
[V:2] F,,2 F, ^E, F,2 C,2 !mordent!D,2 C,2 F,2 C,2 | 
[V:1] ^G A G F ^E G F E c2 F E F A G B | 
[V:2] !mordent!C,2 B,,2 ^G,2 B,,2 !mordent!B,,2 A,, ^G,, A,,2 B,,2 | 
[V:1] A B c d2< !mordent!^G2 F F2 f ^e f2 c2 | 
[V:2] C,2 B,,2 C,2 C,,2 F,,2> ^G,,2 A,, B,, G,, A,, | 
[V:1] !mordent!d2 c2 f2 c2 !mordent!c2 B2 ^g2 B2 | 
[V:2] B,, C, B,, ^G,, A,, B,, A,, F,, G,, A,, G,, F,, ^E,, G,, F,, E,, | 
[V:1] !mordent!B2 A ^G A B A ^E F2 f =e f2 c2 | 
[V:2] F,,2 F, ^E, F,2 C,2 D,2 D C D =E D ^A, | 
[V:1] d e d B e B f B g a g e a e b d | 
[V:2] B,2 =A,2 G,2 F,2 E,2 E,,2 F,,2 G,,2 | 
[V:1] c d c A d A e A f g f d g d a d | 
[V:2] A,,2 G,2 F,2 E,2 D,2 D,,2 E,,2 F,,2 | 
[V:1] b =c' b e a b a d g a g c f g f d | 
[V:2] G,,2 G,2 F,2 B,2 E,2 A,2 D,2 D2- | 
[V:1] e2 !mordent!G F G2 e2 F2 d2 E2 c2 | 
[V:2] D E D B, C D C A, D C B, A, G, F, G, A, | 
[V:1] d2 z2 z F E F G A G E F G F D | 
[V:2] D,2 D C D2 A,2 !mordent!B,2 A,2 D2 A,2 | 
[V:1] E F E D C E D C D2 A2 d c B d | 
[V:2] !mordent!A,2 G,2 E2 G,2 !mordent!G,2 F, E, F, ^G, A, G, | 
[V:1] c B A ^G A2 E2 !mordent!F2 E2 A2 E2 | 
[V:2] A,2 E,2 D, C, B,, A,, D, E, D, B,, C, D, C, A,, | 
[V:1] !mordent!E2 D2 B2 D2 !mordent!D2 C B, C ^D E D | 
[V:2] B,, C, B,, A,, ^G,, B,, A,, G,, A,,2 A,2 =G,2 F,2 | 
[V:1] A F G A ^G ^A B A e c d e ^d ^e f e | 
[V:2] E,2 E2 D2 C2 B,2 B,,2 A,,2 ^G,,2 | 
[V:1] b ^g a B c ^d =e d a f =g A B c =d c | 
[V:2] F,,2 F, =G, A,2 B,2 E,2 E,, F,, ^G,,2 A,,2 | 
[V:1] g e f c d e f d e f e c d e d B | 
[V:2] D,,2 B, ^A, B,2 F,2 !mordent!G,2 F,2 B,2 F,2 | 
[V:1] c d c B ^A B c A F2 B A B2 F2 | 
[V:2] !mordent!F,2 E,2 C2 E,2 !mordent!E,2 D, C, D, B,, C, D, | 
[V:1] !mordent!G2 F2 B2 F2 !mordent!F2 E2 c2 E2 | 
[V:2] E, F, E, C, D, E, D, B,, C, D, C, B,, ^A,, C, B,, A,, | 
[V:1] !mordent!E2 D C D F E G2< F2 d2< !mordent!^A2 B | 
[V:2] B,,2 B, ^A, B,2 G,2 D, F, E, G, F,2 F,,2 | 
[V:1] !fermata!B16 |]  
[V:2] !fermata!B,,16 |]  



